build/img/sprite/icon-sofa.svg

<svg width="38" height="34" viewBox="0 0 38 34" fill="none" xmlns="http://www.w3.org/2000/svg">
<path fill-rule="evenodd" clip-rule="evenodd" d="M35.7416 9.63027H36.3301C37.2509 9.63027 38 10.4676 38 11.4969V23.0395C38 24.755 36.7515 26.1506 35.2168 26.1506H33.4832V32.2521C33.4832 33.2158 32.7817 34 31.9194 34C31.1027 34 30.4175 33.2866 30.3596 32.3759L29.9637 26.1505H13.8053C13.4979 26.1505 13.2486 25.8719 13.2486 25.5283C13.2486 25.1847 13.4979 24.9061 13.8053 24.9061H35.2167C36.1376 24.9061 36.8866 24.0687 36.8866 23.0394V11.4968C36.8866 11.1537 36.637 10.8746 36.33 10.8746H34.0398C33.7713 10.8746 33.5466 11.0882 33.4946 11.3716C33.4871 11.412 33.4832 11.4539 33.4832 11.4968V14.4762H34.3797C35.1277 14.4762 35.7363 15.1565 35.7363 15.9927V19.5853C35.7363 20.4215 35.1277 21.1018 34.3797 21.1018H3.62032C2.87227 21.1018 2.26367 20.4216 2.26367 19.5854V15.9928C2.26367 15.1566 2.87227 14.4763 3.62032 14.4763H4.51673V11.4969C4.51673 11.454 4.5128 11.4121 4.50537 11.3716C4.45342 11.0884 4.22861 10.8747 3.96009 10.8747H1.66992C1.36295 10.8747 1.11328 11.1538 1.11328 11.4969V23.0394C1.11328 24.0687 1.86237 24.9061 2.7832 24.9061H11.2077C11.5151 24.9061 11.7643 25.1847 11.7643 25.5283C11.7643 25.8719 11.5151 26.1505 11.2077 26.1505H8.03618L7.64023 32.3759C7.58234 33.2866 6.89715 34 6.08045 34C5.21825 34 4.51673 33.2159 4.51673 32.2521V26.1506H2.7832C1.24851 26.1506 0 24.755 0 23.0395V11.4969C0 10.4676 0.74909 9.63027 1.66992 9.63027H2.2584V2.86218C2.2584 1.284 3.40709 0 4.81895 0H16.9961C17.807 0 18.5305 0.424017 19 1.08356C19.4695 0.424017 20.193 0 21.0039 0H33.181C34.431 0 35.4922 0.998028 35.7043 2.37328C35.7565 2.71193 35.5532 3.03374 35.2503 3.09215C34.9472 3.15038 34.6594 2.92332 34.6072 2.58467C34.4874 1.80798 33.8877 1.24442 33.181 1.24442H21.0038C20.2058 1.24442 19.5566 1.97017 19.5566 2.86218V14.5007L19.5664 14.4986L19.5817 14.4951C19.6767 14.4733 19.7767 14.4734 24.7254 14.4749H24.7258H24.7261H24.7264H24.727H24.7278H24.7287C26.5441 14.4755 29.0116 14.4763 32.3699 14.4763V11.4969C32.3699 10.4676 33.119 9.63027 34.0398 9.63027H34.6283V5.38064C34.6283 5.03702 34.8775 4.75843 35.185 4.75843C35.4924 4.75843 35.7416 5.03702 35.7416 5.38064V9.63027ZM6.67484 32.2862L7.00971 26.122H5.90291V32.2504C5.90291 32.5292 6.07624 32.7561 6.28936 32.7561C6.4912 32.7561 6.66052 32.5497 6.67484 32.2862ZM34.6796 19.6298C34.6796 19.7802 34.57 19.9024 34.4353 19.9024H19.5534V18.2513V16.0287C19.5534 15.8783 19.663 15.7561 19.7977 15.7561H34.4353C34.57 15.7561 34.6796 15.8784 34.6796 16.0287V19.6298ZM3.32039 9.63735H3.911C4.83516 9.63735 5.58695 10.4754 5.58695 11.5057V14.4878C8.96849 14.4878 11.4515 14.487 13.2767 14.4865H13.2807H13.2808C18.2558 14.485 18.3405 14.4849 18.4198 14.5057C18.4274 14.5077 18.4349 14.5098 18.4466 14.5122V2.86312C18.4466 1.97031 17.795 1.2439 16.9941 1.2439H4.77288C3.972 1.2439 3.32039 1.97031 3.32039 2.86312V9.63735ZM3.32039 19.6299V16.0288C3.32039 15.8784 3.43 15.7561 3.56472 15.7561H18.2023C18.337 15.7561 18.4466 15.8784 18.4466 16.0288V18.2514V19.9024H3.56472C3.43 19.9024 3.32039 19.7802 3.32039 19.6299ZM31.7106 32.7561C31.9237 32.7561 32.0971 32.5293 32.0971 32.2504V26.122H30.9903L31.3251 32.2862C31.3395 32.5497 31.5088 32.7561 31.7106 32.7561Z" fill="black"/>
</svg>

<svg width="38" height="34" fill="none" xmlns="http://www.w3.org/2000/svg"><path fill-rule="evenodd" clip-rule="evenodd" d="M35.742 9.63h.588c.92 0 1.67.838 1.67 1.867V23.04c0 1.715-1.248 3.11-2.783 3.11h-1.734v6.102c0 .964-.701 1.748-1.564 1.748-.816 0-1.502-.713-1.56-1.624l-.395-6.225H13.805c-.307 0-.556-.28-.556-.623 0-.343.249-.622.556-.622h21.412c.92 0 1.67-.837 1.67-1.867V11.497c0-.343-.25-.622-.557-.622h-2.29c-.269 0-.493.213-.545.497a.686.686 0 00-.012.125v2.98h.897c.748 0 1.356.68 1.356 1.516v3.592c0 .837-.608 1.517-1.356 1.517H3.62c-.748 0-1.356-.68-1.356-1.517v-3.592c0-.836.608-1.517 1.356-1.517h.897v-2.98a.694.694 0 00-.012-.124c-.052-.284-.276-.497-.545-.497H1.67c-.307 0-.557.279-.557.622v11.542c0 1.03.75 1.867 1.67 1.867h8.425c.307 0 .556.279.556.622 0 .344-.249.623-.556.623H8.036l-.396 6.225C7.582 33.286 6.897 34 6.08 34c-.862 0-1.563-.784-1.563-1.748v-6.101H2.783C1.25 26.15 0 24.755 0 23.04V11.497c0-1.03.75-1.867 1.67-1.867h.588V2.862C2.258 1.284 3.408 0 4.82 0h12.177c.811 0 1.535.424 2.004 1.084C19.47.424 20.193 0 21.004 0H33.18c1.25 0 2.311.998 2.523 2.373.053.339-.15.66-.454.72-.303.057-.59-.17-.643-.508-.12-.777-.72-1.34-1.426-1.34H21.004c-.798 0-1.447.725-1.447 1.617v11.639l.01-.002.015-.004c.095-.022.195-.022 5.143-.02h.004l7.64.001v-2.98c0-1.028.75-1.866 1.67-1.866h.59V5.38c0-.343.248-.622.556-.622.307 0 .557.279.557.623v4.25zM6.675 32.286l.335-6.164H5.903v6.128c0 .28.173.506.386.506.202 0 .372-.206.386-.47zM34.68 19.63c0 .15-.11.272-.245.272H19.553V16.03c0-.15.11-.273.245-.273h14.637c.135 0 .245.122.245.273v3.6zM3.32 9.637h.591c.924 0 1.676.838 1.676 1.869v2.982l7.69-.002h.004c4.975-.001 5.06-.001 5.139.02l.027.006V2.863c0-.893-.652-1.62-1.453-1.62H4.773c-.801 0-1.453.727-1.453 1.62v6.774zm0 9.993v-3.601c0-.15.11-.273.245-.273h14.637c.135 0 .245.122.245.273v3.873H3.565c-.135 0-.245-.122-.245-.272zm28.39 13.126c.214 0 .387-.227.387-.506v-6.128H30.99l.335 6.164c.015.264.184.47.386.47z" fill="#000"/></svg>
